kinematics/images/vec7.svg

<svg xmlns="http://www.w3.org/2000/svg" width="302.6" height="301.6" style="width:302.6000061035156px;height:301.6000061035156px;background:0 0;fill:none"><svg xmlns="http://www.w3.org/2000/svg"/><svg xmlns="http://www.w3.org/2000/svg" class="role-diagram-draw-area" style="overflow:visible"><g class="shapes-region" style="stroke:#000;fill:none"><g class="arrow-line"><path d="M7.36 148.9h287.71m-271.71-4v8m16-8v8m16-8v8m16-8v8m16-8v8m16-8v8m16-8v8m16-8v8m16-8v8m16-8v8m16-8v8m16-8v8m16-8v8m16-8v8m16-8v8m16-8v8m16-8v8" class="connection real" style="stroke:#000;stroke-width:1;fill:none;fill-opacity:1"/><path d="M10.93-3.29Q4.96-.45 0 0q4.96.45 10.93 3.29" style="stroke:#000;stroke-width:1" transform="matrix(-1 0 0 -1 297.067 148.9)"/><path d="M10.93-3.29Q4.96-.45 0 0q4.96.45 10.93 3.29" style="stroke:#000;stroke-width:1" transform="translate(5.36 148.9)"/></g><g class="arrow-line"><path d="M151.21 5.05v287.7m4-271.7h-8m8 16h-8m8 16h-8m8 16h-8m8 16h-8m8 16h-8m8 16h-8m8 16h-8m8 16h-8m8 16h-8m8 16h-8m8 16h-8m8 16h-8m8 16h-8m8 16h-8m8 16h-8m8 16h-8" class="connection real" style="stroke:#000;stroke-width:1;fill:none;fill-opacity:1"/><path d="M10.93-3.29Q4.96-.45 0 0q4.96.45 10.93 3.29" style="stroke:#000;stroke-width:1" transform="rotate(-90 222.983 71.77)"/><path d="M10.93-3.29Q4.96-.45 0 0q4.96.45 10.93 3.29" style="stroke:#000;stroke-width:1" transform="rotate(90 74.083 77.13)"/></g><g class="arrow-line"><path stroke-dasharray="3" d="m151.21 148.9 29.99-45.89" class="connection real" style="stroke:#900;stroke-opacity:1;stroke-width:1;fill:none;fill-opacity:1"/><path stroke="#900" d="M10.93-3.29Q4.96-.45 0 0q4.96.45 10.93 3.29" style="stroke:#900;stroke-width:1" transform="rotate(123.16 63.726 99.99)"/></g><g class="arrow-line"><path stroke-dasharray="3" d="M151.21 148.9 87.9 102.3" class="connection real" style="stroke:#900;stroke-opacity:1;stroke-width:1;fill:none;fill-opacity:1"/><path stroke="#900" d="M10.93-3.29Q4.96-.45 0 0q4.96.45 10.93 3.29" style="stroke:#900;stroke-width:1" transform="rotate(36.36 -110.802 181.935)"/></g><g class="arrow-line"><path d="M182.29 101.11h-92" class="connection real" style="stroke:#900;stroke-opacity:1;stroke-width:2;fill:none;fill-opacity:1"/><path fill="#900" stroke="none" d="M13.4-6.43 0 0l13.4 6.44L8.9 0Z" style="stroke:none;fill:#900;stroke-width:2" transform="translate(86.289 101.111)"/></g></g></svg><svg xmlns="http://www.w3.org/2000/svg" xmlns:xlink="http://www.w3.org/1999/xlink" width="301" height="300" style="width:301px;height:300px;font-family:Asana-Math,Asana;background:0 0"/></svg>

<svg xmlns="http://www.w3.org/2000/svg" xmlns:xlink="http://www.w3.org/1999/xlink" x="0" y="0" width="302.6000061035156" height="301.6000061035156" style="
        width:302.6000061035156px;
        height:301.6000061035156px;
        background: transparent;
        fill: none;
">
        <svg xmlns="http://www.w3.org/2000/svg"/>
        
        <svg xmlns="http://www.w3.org/2000/svg" class="role-diagram-draw-area" style="overflow: visible;"><g class="shapes-region" style="stroke: black; fill: none;"><g class="arrow-line"><path class="connection real" stroke-dasharray="" d="  M7.36,148.9 L295.07,148.9  M23.36,144.9 L23.36,152.9 M39.36,144.9 L39.36,152.9 M55.36,144.9 L55.36,152.9 M71.36,144.9 L71.36,152.9 M87.36,144.9 L87.36,152.9 M103.36,144.9 L103.36,152.9 M119.36,144.9 L119.36,152.9 M135.36,144.9 L135.36,152.9 M151.36,144.9 L151.36,152.9 M167.36,144.9 L167.36,152.9 M183.36,144.9 L183.36,152.9 M199.36,144.9 L199.36,152.9 M215.36,144.9 L215.36,152.9 M231.36,144.9 L231.36,152.9 M247.36,144.9 L247.36,152.9 M263.36,144.9 L263.36,152.9 M279.36,144.9 L279.36,152.9" style="stroke: rgb(0, 0, 0); stroke-width: 1; fill: none; fill-opacity: 1;"/><g stroke="#000" transform="matrix(-1,1.2246467991473532e-16,-1.2246467991473532e-16,-1,297.0666666666666,148.9000076293945)" style="stroke: rgb(0, 0, 0); stroke-width: 1;"><path d=" M10.93,-3.29 Q4.96,-0.45 0,0 Q4.96,0.45 10.93,3.29"/></g><g stroke="#000" transform="matrix(1,0,0,1,5.359997558593719,148.90000762939454)" style="stroke: rgb(0, 0, 0); stroke-width: 1;"><path d=" M10.93,-3.29 Q4.96,-0.45 0,0 Q4.96,0.45 10.93,3.29"/></g></g><g class="arrow-line"><path class="connection real" stroke-dasharray="" d="  M151.21,5.05 L151.21,292.75  M155.21,21.05 L147.21,21.05 M155.21,37.05 L147.21,37.05 M155.21,53.05 L147.21,53.05 M155.21,69.05 L147.21,69.05 M155.21,85.05 L147.21,85.05 M155.21,101.05 L147.21,101.05 M155.21,117.05 L147.21,117.05 M155.21,133.05 L147.21,133.05 M155.21,149.05 L147.21,149.05 M155.21,165.05 L147.21,165.05 M155.21,181.05 L147.21,181.05 M155.21,197.05 L147.21,197.05 M155.21,213.05 L147.21,213.05 M155.21,229.05 L147.21,229.05 M155.21,245.05 L147.21,245.05 M155.21,261.05 L147.21,261.05 M155.21,277.05 L147.21,277.05" style="stroke: rgb(0, 0, 0); stroke-width: 1; fill: none; fill-opacity: 1;"/><g stroke="#000" transform="matrix(-1.8369701987210297e-16,-1,1,-1.8369701987210297e-16,151.21333211263016,294.75334218343096)" style="stroke: rgb(0, 0, 0); stroke-width: 1;"><path d=" M10.93,-3.29 Q4.96,-0.45 0,0 Q4.96,0.45 10.93,3.29"/></g><g stroke="#000" transform="matrix(6.123233995736766e-17,1,-1,6.123233995736766e-17,151.21333211263016,3.046673075358086)" style="stroke: rgb(0, 0, 0); stroke-width: 1;"><path d=" M10.93,-3.29 Q4.96,-0.45 0,0 Q4.96,0.45 10.93,3.29"/></g></g><g class="arrow-line"><path class="connection real" stroke-dasharray="3" d="  M151.21,148.9 L181.2,103.01" style="stroke: rgb(153, 0, 0); stroke-opacity: 1; stroke-width: 1; fill: none; fill-opacity: 1;"/><g stroke="rgb(153,0,0)" stroke-opacity="1" transform="matrix(-0.546978918408849,0.8371463807580403,-0.8371463807580403,-0.546978918408849,182.28888871934674,101.33333333333333)" style="stroke: rgb(153, 0, 0); stroke-width: 1;"><path d=" M10.93,-3.29 Q4.96,-0.45 0,0 Q4.96,0.45 10.93,3.29"/></g></g><g class="arrow-line"><path class="connection real" stroke-dasharray="3" d="  M151.21,148.9 L87.9,102.3" style="stroke: rgb(153, 0, 0); stroke-opacity: 1; stroke-width: 1; fill: none; fill-opacity: 1;"/><g stroke="rgb(153,0,0)" stroke-opacity="1" transform="matrix(0.8053078857111218,0.5928568201610595,-0.5928568201610595,0.8053078857111218,86.28888871934677,101.1111111111111)" style="stroke: rgb(153, 0, 0); stroke-width: 1;"><path d=" M10.93,-3.29 Q4.96,-0.45 0,0 Q4.96,0.45 10.93,3.29"/></g></g><g class="arrow-line"><path class="connection real" stroke-dasharray="" d="  M182.29,101.11 L90.29,101.11" style="stroke: rgb(153, 0, 0); stroke-opacity: 1; stroke-width: 2; fill: none; fill-opacity: 1;"/><g stroke="none" fill="rgb(153,0,0)" fill-opacity="1" transform="matrix(1,-2.4492935982947064e-16,2.4492935982947064e-16,1,86.28888871934679,101.1111111111111)" style="stroke: none; fill: rgb(153, 0, 0); stroke-width: 2;"><path d=" M13.4,-6.43 L0,0 L13.4,6.44 L8.9,0 Z"/></g></g><g/></g><g/><g/><g/></svg>
        <svg xmlns="http://www.w3.org/2000/svg" xmlns:xlink="http://www.w3.org/1999/xlink" width="301" height="300" style="width:301px;height:300px;font-family:Asana-Math, Asana;background:transparent;"></svg>
</svg>
